X: 38618
T: Stoney Steps, The
R: reel
M: 4/4
K: Dmajor
|:~A3B AF~F2|ABdf ed{Bd}BA|FA~A2 BFAF|EFGE FD~D2:|
fedc defg|afbf afeg|fded fded|BdAF ~E3g|
fedc defa|bfaf gfea|~f3a e3f|dfaf efdB||

